X: 24228
T: Lord Moira's Welcome To Scotland
R: strathspey
M: 4/4
K: Dmajor
|:DCDE FAAA|GEFD EDB,A,|1 DCDE FAAA|Bdce d4:|2 B,DDE FAAA|Bdce d4||
|:defd dBAA|BddB AFFF|1 defd dBAA|Bdce d4:|2 DCDE FAAA|Bdce d4||

